X: 83
T: The Millbrae
T: Reel, A 
C: Ronnie Cooper
L: 1/16
M: C|
K: A 
|: a2f2| e2A2 A1A1A2 e2A2c2e2| f2e2d2f2 e2a2g2a2| f2e2d2c2 d2c2B2A2| G4B4 B4a2f2| 
 e2A2 A1A1A2 e2A2c2e2| f2e2d2f2 e2a2g2a2| f2e2d2c2 d2B2e2d2| c4A4 A4:| 
|: a4| (3g2a2b2 e2g2 b2e2g2b2| a2A2c2e2 a2g2f2e2| f2e2d2c2 d2c2B2A2| G4B4 B4 |
[1 a4| (3g2a2b2 e2g2 b2e2g2b2| a2A2c2e2 a2g2f2e2| f2e2d2c2 d2B2e2d2| c4A4 A4:| 
[2 a2f2| e2A2 A1A1A2 e2A2c2e2| f2e2d2f2 e2a2g2a2| f2e2d2c2 d2B2e2d2| c4A4 A4|] 
D: Buddy MacMaster, Glencoe Hall, BM-91
